packages/dnb-eufemia/assets/icons/confetti_medium.svg

<svg width="25" height="25" viewBox="0 0 25 25" fill="none" xmlns="http://www.w3.org/2000/svg">
<path d="M0.901935 22.5408L1.57719 22.9024L1.57764 22.9016L0.901935 22.5408ZM1.10313 23.8971L0.560739 24.438L0.562282 24.4395L1.10313 23.8971ZM2.46041 24.0983L2.10001 23.4224L2.09948 23.4227L2.46041 24.0983ZM10.0629 14.9425L9.52107 15.4839L9.52133 15.4841L10.0629 14.9425ZM7.97238 9.26723L7.43104 8.72533L7.42993 8.72645L7.97238 9.26723ZM13.6466 11.3578L14.1884 10.8163L14.188 10.8159L13.6466 11.3578ZM16.5114 12.1687C16.2121 12.4677 16.2118 12.9526 16.5108 13.2519C16.8098 13.5512 17.2948 13.5515 17.5941 13.2525L16.5114 12.1687ZM23.6787 13.2525C23.978 13.5515 24.463 13.5512 24.762 13.2519C25.0609 12.9526 25.0607 12.4677 24.7614 12.1687L23.6787 13.2525ZM11.733 7.39157C11.4338 7.69062 11.4336 8.1756 11.7327 8.47481C12.0317 8.77401 12.5167 8.77414 12.8159 8.47509L11.733 7.39157ZM12.8163 0.224625C12.5174 -0.0746566 12.0324 -0.0749067 11.7331 0.224066C11.4338 0.523039 11.4336 1.00802 11.7325 1.3073L12.8163 0.224625ZM18.4734 7.9326C18.072 8.0662 17.8549 8.49989 17.9885 8.90127C18.1221 9.30265 18.5558 9.51972 18.9572 9.38612L18.4734 7.9326ZM22.5409 8.19326C22.9422 8.05966 23.1593 7.62597 23.0257 7.22459C22.8921 6.82321 22.4584 6.60614 22.057 6.73974L22.5409 8.19326ZM15.5999 6.02948C15.4662 6.4308 15.683 6.86458 16.0844 6.99836C16.4857 7.13213 16.9195 6.91524 17.0532 6.51392L15.5999 6.02948ZM18.2481 2.92921C18.3819 2.52789 18.165 2.09411 17.7637 1.96034C17.3624 1.82657 16.9286 2.04346 16.7948 2.44478L18.2481 2.92921ZM15.792 8.29834L15.2504 7.75672L15.249 7.75811L15.792 8.29834ZM16.5141 8.29834L17.0571 7.7581L17.0557 7.75672L16.5141 8.29834ZM8.9233 6.03435L8.38168 5.49274L8.3803 5.49412L8.9233 6.03435ZM8.20125 6.03435L8.74425 5.49412L8.74287 5.49274L8.20125 6.03435ZM20.9483 4.77767L21.4885 5.32068L21.4899 5.31928L20.9483 4.77767ZM20.2263 4.77767L19.6846 5.31928L19.686 5.32067L20.2263 4.77767ZM6.93708 9.60915L0.226227 22.1801L1.57764 22.9016L8.2885 10.3306L6.93708 9.60915ZM0.226686 22.1793C-0.172136 22.9241 -0.0348231 23.8407 0.560741 24.438L1.64552 23.3563C1.52414 23.2345 1.49805 23.0502 1.57718 22.9024L0.226686 22.1793ZM0.562282 24.4395C1.15985 25.0354 2.07622 25.172 2.82135 24.7739L2.09948 23.4227C1.94996 23.5026 1.76539 23.4758 1.64397 23.3547L0.562282 24.4395ZM2.82082 24.7742L15.4306 18.05L14.7098 16.6983L2.10001 23.4224L2.82082 24.7742ZM15.1956 16.4915C15.0393 16.6477 14.5662 16.8011 13.598 16.4444C12.697 16.1125 11.6168 15.4131 10.6046 14.4009L9.52133 15.4841C10.6538 16.6166 11.9159 17.4573 13.0684 17.8819C14.1538 18.2817 15.4455 18.408 16.2788 17.5747L15.1956 16.4915ZM10.6048 14.4011C9.59293 13.3883 8.89373 12.3082 8.56179 11.4073C8.20526 10.4396 8.35788 9.96545 8.51484 9.80801L7.42993 8.72645C6.59828 9.56067 6.72435 10.8513 7.12433 11.9369C7.54891 13.0893 8.3893 14.351 9.52107 15.4839L10.6048 14.4011ZM8.51372 9.80912C8.66967 9.65333 9.14295 9.50024 10.1118 9.85737C11.0132 10.1896 12.0935 10.8889 13.1053 11.8997L14.188 10.8159C13.0561 9.68506 11.7941 8.84476 10.6416 8.41998C9.55673 8.02008 8.26471 7.89252 7.43104 8.72533L8.51372 9.80912ZM13.1049 11.8993C14.1172 12.9121 14.8166 13.9926 15.1485 14.8937C15.5052 15.862 15.3518 16.3352 15.1956 16.4915L16.2788 17.5747C17.1122 16.7413 16.9859 15.4497 16.586 14.3642C16.1615 13.2116 15.3208 11.9492 14.1884 10.8163L13.1049 11.8993ZM17.5941 13.2525C19.2742 11.574 21.9986 11.574 23.6787 13.2525L24.7614 12.1687C22.4831 9.89273 18.7897 9.89273 16.5114 12.1687L17.5941 13.2525ZM12.8159 8.47509C15.0947 6.19747 15.0941 2.50475 12.8163 0.224625L11.7325 1.3073C13.4133 2.98976 13.4127 5.71274 11.733 7.39157L12.8159 8.47509ZM18.9572 9.38612L22.5409 8.19326L22.057 6.73974L18.4734 7.9326L18.9572 9.38612ZM17.0532 6.51392L18.2481 2.92921L16.7948 2.44478L15.5999 6.02948L17.0532 6.51392ZM15.9725 8.48081C16.0724 8.38083 16.2337 8.38083 16.3337 8.48081L15.2504 9.56404C15.7487 10.0623 16.5574 10.0623 17.0557 9.56404L15.9725 8.48081ZM16.3337 8.48081C16.4344 8.58155 16.4324 8.7407 16.335 8.83857L15.249 7.75811C14.7534 8.25632 14.7514 9.065 15.2504 9.56404L16.3337 8.48081ZM16.3337 8.83995C16.2337 8.93993 16.0724 8.93993 15.9725 8.83995L17.0557 7.75672C16.5574 7.25844 15.7487 7.25844 15.2504 7.75672L16.3337 8.83995ZM15.9711 8.83857C15.8737 8.7407 15.8717 8.58155 15.9725 8.48081L17.0557 9.56404C17.5547 9.065 17.5528 8.25632 17.0571 7.75811L15.9711 8.83857ZM8.3803 5.49412C8.48059 5.39332 8.64396 5.39332 8.74425 5.49412L7.65825 6.57459C8.15684 7.07573 8.96771 7.07573 9.4663 6.57459L8.3803 5.49412ZM8.74287 5.49274C8.84285 5.59271 8.84285 5.75395 8.74287 5.85393L7.65963 4.77069C7.16136 5.26897 7.16136 6.0777 7.65963 6.57597L8.74287 5.49274ZM8.74287 5.85393C8.64289 5.9539 8.48166 5.9539 8.38168 5.85393L9.46492 4.77069C8.96664 4.27241 8.15791 4.27241 7.65963 4.77069L8.74287 5.85393ZM8.38168 5.85393C8.28171 5.75395 8.28171 5.59271 8.38168 5.49274L9.46492 6.57597C9.96319 6.0777 9.96319 5.26897 9.46492 4.77069L8.38168 5.85393ZM20.4081 4.23466C20.5077 4.13551 20.6668 4.13551 20.7665 4.23466L19.686 5.32067C20.184 5.81608 20.9906 5.81608 21.4885 5.32067L20.4081 4.23466ZM20.7679 4.23605C20.8678 4.33603 20.8678 4.49726 20.7679 4.59724L19.6846 3.514C19.1864 4.01228 19.1864 4.82101 19.6846 5.31928L20.7679 4.23605ZM20.7679 4.59724C20.6679 4.69721 20.5067 4.69721 20.4067 4.59724L21.4899 3.514C20.9916 3.01572 20.1829 3.01572 19.6846 3.514L20.7679 4.59724ZM20.4067 4.59724C20.3067 4.49726 20.3067 4.33603 20.4067 4.23605L21.4899 5.31928C21.9882 4.82101 21.9882 4.01228 21.4899 3.514L20.4067 4.59724ZM19.7295 14.4529C19.8294 14.3529 19.9907 14.3529 20.0907 14.4529L19.0074 15.5361C19.5057 16.0344 20.3144 16.0344 20.8127 15.5361L19.7295 14.4529ZM20.0907 14.4529C20.1906 14.5528 20.1906 14.7141 20.0907 14.8141L19.0074 13.7308C18.5091 14.2291 18.5091 15.0378 19.0074 15.5361L20.0907 14.4529ZM20.0907 14.8141C19.9907 14.914 19.8294 14.914 19.7295 14.8141L20.8127 13.7308C20.3144 13.2325 19.5057 13.2325 19.0074 13.7308L20.0907 14.8141ZM19.7295 14.8141C19.6295 14.7141 19.6295 14.5528 19.7295 14.4529L20.8127 15.5361C21.311 15.0378 21.311 14.2291 20.8127 13.7308L19.7295 14.8141Z" fill="black"/>
</svg>

<svg width="24" height="24" viewBox="0 0 25 25" fill="none" xmlns="http://www.w3.org/2000/svg"><path d="m.902 22.54.675.362-.675-.361Zm.201 1.357-.542.541.001.002.541-.543Zm1.357.201-.36-.676.36.676Zm7.603-9.155-.542.54v.001l.542-.541Zm-2.09-5.676-.542-.542-.001.001.542.541Zm5.674 2.09.541-.54v-.001l-.541.542Zm2.864.812a.766.766 0 1 0 1.083 1.083l-1.083-1.083Zm7.168 1.083a.766.766 0 0 0 1.082-1.083l-1.082 1.083Zm-11.946-5.86a.766.766 0 1 0 1.083 1.083l-1.083-1.083ZM12.816.225a.766.766 0 1 0-1.084 1.082L12.816.225Zm5.657 7.708a.766.766 0 1 0 .484 1.453l-.484-1.453Zm4.068.26a.766.766 0 0 0-.484-1.453l.484 1.453ZM15.6 6.03a.766.766 0 0 0 1.453.485L15.6 6.029Zm2.648-3.1a.766.766 0 1 0-1.453-.484l1.453.484ZM15.792 8.3l-.542-.542-.001.001.543.54Zm.722 0 .543-.54-.001-.002-.542.541Zm-7.59-2.265-.542-.541-.002.001.543.54Zm-.723 0 .543-.54-.001-.001-.542.541Zm12.747-1.256.54.543.002-.002-.542-.541Zm-.722 0-.541.541.001.002.54-.543ZM6.937 9.609.227 22.18l1.35.722L8.29 10.33l-1.352-.722ZM.227 22.18a1.917 1.917 0 0 0 .334 2.259l1.085-1.082a.385.385 0 0 1-.069-.454l-1.35-.723Zm.335 2.26a1.918 1.918 0 0 0 2.26.335l-.723-1.351a.386.386 0 0 1-.455-.068L.562 24.439Zm2.259.335 12.61-6.724-.721-1.352L2.1 23.422l.72 1.352Zm12.375-8.283c-.157.157-.63.31-1.598-.047-.901-.331-1.981-1.03-2.993-2.043L9.52 15.484c1.133 1.133 2.395 1.973 3.547 2.398 1.086.4 2.377.526 3.21-.307l-1.082-1.084Zm-4.591-2.09c-1.012-1.013-1.711-2.093-2.043-2.994-.357-.967-.204-1.442-.047-1.599L7.43 8.726c-.832.835-.706 2.125-.306 3.21.425 1.153 1.265 2.415 2.397 3.548l1.084-1.083ZM8.514 9.81c.156-.156.629-.309 1.598.048.901.333 1.982 1.032 2.993 2.043l1.083-1.084c-1.132-1.13-2.394-1.971-3.546-2.396-1.085-.4-2.377-.527-3.211.305L8.514 9.81Zm4.59 2.09c1.013 1.013 1.713 2.094 2.045 2.995.356.968.203 1.441.047 1.597l1.083 1.084c.833-.834.707-2.125.307-3.21-.424-1.153-1.265-2.416-2.398-3.549L13.105 11.9Zm4.49 1.354a4.306 4.306 0 0 1 6.085 0l1.082-1.084a5.838 5.838 0 0 0-8.25 0l1.083 1.083Zm-4.778-4.778a5.834 5.834 0 0 0 0-8.25l-1.084 1.082a4.302 4.302 0 0 1 .001 6.085l1.083 1.083Zm6.141.911 3.584-1.193-.484-1.453-3.584 1.193.484 1.453Zm-1.904-2.872 1.195-3.585-1.453-.484L15.6 6.029l1.453.485Zm-1.08 1.967c.1-.1.26-.1.36 0L15.25 9.564a1.277 1.277 0 0 0 1.806 0l-1.084-1.083Zm.36 0c.101.1.1.26.002.358l-1.086-1.08a1.28 1.28 0 0 0 .001 1.805l1.084-1.083Zm0 .359c-.1.1-.26.1-.36 0l1.083-1.083a1.277 1.277 0 0 0-1.806 0l1.084 1.083Zm-.362-.001a.252.252 0 0 1 .002-.358l1.083 1.083a1.28 1.28 0 0 0 .001-1.806l-1.086 1.08Zm-7.59-3.345c.1-.1.263-.1.363 0l-1.086 1.08c.499.502 1.31.502 1.808 0L8.38 5.495Zm.362-.001c.1.1.1.26 0 .36L7.66 4.772a1.277 1.277 0 0 0 0 1.805l1.083-1.083Zm0 .36c-.1.1-.261.1-.361 0l1.083-1.082a1.277 1.277 0 0 0-1.805 0l1.083 1.083Zm-.361 0c-.1-.1-.1-.26 0-.36l1.083 1.083a1.277 1.277 0 0 0 0-1.805L8.382 5.854Zm12.026-1.618c.1-.1.259-.1.358 0l-1.08 1.086a1.279 1.279 0 0 0 1.802 0l-1.08-1.086Zm.36.001c.1.1.1.261 0 .361l-1.083-1.083a1.277 1.277 0 0 0 0 1.805l1.083-1.083Zm0 .361c-.1.1-.261.1-.361 0l1.083-1.083a1.277 1.277 0 0 0-1.805 0l1.083 1.083Zm-.361 0c-.1-.1-.1-.261 0-.361L21.49 5.32a1.277 1.277 0 0 0 0-1.805l-1.083 1.083Zm-.677 9.856c.1-.1.26-.1.36 0l-1.083 1.083a1.277 1.277 0 0 0 1.806 0l-1.083-1.083Zm.36 0c.1.1.1.261 0 .361l-1.083-1.083a1.277 1.277 0 0 0 0 1.805l1.084-1.083Zm0 .361c-.1.1-.26.1-.36 0l1.083-1.083a1.277 1.277 0 0 0-1.806 0l1.084 1.083Zm-.36 0c-.1-.1-.1-.261 0-.361l1.083 1.083a1.277 1.277 0 0 0 0-1.805l-1.083 1.083Z" fill="#000"/></svg>
